**kern	**kern	**dynam
*part1	*part1	*part1
*staff2	*staff1	*
*I"Piano	*	*
*clefF4	*clefG2	*
*k[]	*k[]	*
=1	=1	=1
*	*^	*
4EE 4E	4d 4dd	8rdd	.
.	.	4e 4g	.
4E 4G	4c 4cc	.	.
.	.	8e 8g	.
=	=	=	=
!	!LO:TX:a:i:t=cresc.	!	!
4FF 4F	4.g 4.gg	8raa	p
.	.	8aL 8dd	.
4F 4A 4d	.	8rff	.
.	8f 8ff	8aJ 8dd	.
=	=	=	=
4GG 4G	2e 2ee	8rff	.
.	.	4g 4cc	.
4G 4c	.	.	.
.	.	8g 8cc	.
=	=	=	=
4FF 4F	2d 2dd	8rdd	.
.	.	4g 4b	.
4F 4G	.	.	.
.	.	8g 8b	.
=	=	=	=
4EE 4E	2g 2gg	8raa	.
.	.	4cc 4ee	.
4E 4G 4c	.	.	.
.	.	8cc 8ee	.
=	=	=	=
4BBB 4BB	2G 2g	8rg	.
.	.	4d 4f	.
!	!	!	!LO:DY:a
4BB 4D	.	.	f
.	.	8d 8f	.
*	*v	*v	*
=	=	=
!	!	!LO:DY:a
4CC 4C	8GL 8g	pp
.	8c 8e	<
4DD 4D	8G#X 8g#X	.
.	8BJ 8e	.
=	=	=
4CC 4C	8AL 8a	.
.	8c 8e	.
4GGG#X 4GG#X	8B 8b	.
.	8dJ 8e	.
=	=	=
4AAA 4AA	8cL 8cc	.
.	8e 8a	.
!	!LO:TX:a:i:t=cresc.	!
4GGGn 4GGn	8c#X 8cc#X	.
.	8eJ 8a	.
=	=	=
*-	*-	*-
!!!system-decoration: {(s1,s2)}
